ix/archive-slash_outline.svg

<svg viewBox="0 0 24 24" fill="none" xmlns="http://www.w3.org/2000/svg" height="1em" width="1em">
  <path d="M2.00043 22.7499C1.81043 22.7499 1.62043 22.6799 1.47043 22.5299C1.18043 22.2399 1.18043 21.7599 1.47043 21.4699L21.4704 1.46994C21.7604 1.17994 22.2404 1.17994 22.5304 1.46994C22.8204 1.75994 22.8204 2.23994 22.5304 2.52994L2.53043 22.5299C2.38043 22.6799 2.19043 22.7499 2.00043 22.7499Z" fill="#292D32"/>
  <path d="M18.8797 22.75C18.3197 22.75 17.7197 22.58 17.1197 22.25L10.5997 18.18C10.2497 17.96 10.1397 17.5 10.3597 17.15C10.5797 16.8 11.0397 16.69 11.3897 16.91L17.8797 20.96C18.4397 21.27 18.9997 21.34 19.3597 21.13C19.7197 20.92 19.9297 20.4 19.9297 19.71V8.70996C19.9297 8.29996 20.2697 7.95996 20.6797 7.95996C21.0897 7.95996 21.4297 8.29996 21.4297 8.70996V19.71C21.4297 20.94 20.9497 21.93 20.1197 22.42C19.7497 22.64 19.3297 22.75 18.8797 22.75Z" fill="#292D32"/>
  <path d="M3.32031 20.7C2.91031 20.7 2.57031 20.36 2.57031 19.95V5.86C2.57031 3.32 4.64031 1.25 7.18031 1.25H16.8303C18.2203 1.25 19.5303 1.87 20.4103 2.96C20.6703 3.28 20.6203 3.75 20.3003 4.02C19.9803 4.28 19.5103 4.23 19.2503 3.91C18.6503 3.17 17.7703 2.75 16.8303 2.75H7.18031C5.47031 2.75 4.07031 4.15 4.07031 5.86V19.95C4.07031 20.36 3.73031 20.7 3.32031 20.7Z" fill="#292D32"/>
</svg>

<svg viewBox="0 0 24 24" fill="none" xmlns="http://www.w3.org/2000/svg" height="1em" width="1em">
  <path d="M2 22.75c-.19 0-.38-.07-.53-.22a.754.754 0 0 1 0-1.06l20-20c.29-.29.77-.29 1.06 0 .29.29.29.77 0 1.06l-20 20c-.15.15-.34.22-.53.22Zm16.88 0c-.56 0-1.16-.17-1.76-.5l-6.52-4.07a.747.747 0 1 1 .79-1.27l6.49 4.05c.56.31 1.12.38 1.48.17.36-.21.57-.73.57-1.42v-11c0-.41.34-.75.75-.75s.75.34.75.75v11c0 1.23-.48 2.22-1.31 2.71-.37.22-.79.33-1.24.33Z" fill="#292D32"/>
  <path d="M3.32 20.7c-.41 0-.75-.34-.75-.75V5.86c0-2.54 2.07-4.61 4.61-4.61h9.65c1.39 0 2.7.62 3.58 1.71.26.32.21.79-.11 1.06-.32.26-.79.21-1.05-.11a3.1 3.1 0 0 0-2.42-1.16H7.18a3.12 3.12 0 0 0-3.11 3.11v14.09c0 .41-.34.75-.75.75Z" fill="#292D32"/>
</svg>
